X:19066
T:Staines Morris
T:Then Away to the Maypole
R:March
C:Trad. Playford 1651
O:England, Staines
Z:Paul Hardy's Session Tunebook 2015 (see www.paulhardy.net). Creative Commons cc by-nc-sa licenced.
M:2/2
L:1/8
Q:1/2=60
K:Em
"Em"B2 e2 "A"^c2 ^d2|"Em"e2 dc B3 c|"G"dedc "Em"B2 AG|"Bm"FEFG "Em"E4:|
"Em"GABc B2 AG|"Bm"FEFG "Em"E4|GABc B2 AG|"Bm"FEFG "Em"E4||
|:"Em"G2 GG "G"D2 D2|"Em"EFGA B3 c|"G"dedc "Em"B2 AG|"Bm"FEFG "Em"E4:|

